colors/color-red/folder.svg

<svg width="64" height="64" version="1.1" xmlns="http://www.w3.org/2000/svg" xmlns:xlink="http://www.w3.org/1999/xlink">
 <defs>
  <linearGradient id="linearGradient860" x1="8.4667" x2="8.4667" y1="293.3" y2="292.77" gradientTransform="matrix(3.7794 0 0 3.7794 .00021457 -1058.5)" gradientUnits="userSpaceOnUse">
   <stop stop-color="#000000" stop-opacity=".1" offset="0"/>
   <stop stop-color="#fff" stop-opacity=".15" offset="1"/>
  </linearGradient>
  <linearGradient id="linearGradient868" x1="8.4667" x2="8.4667" y1="294.62" y2="293.56" gradientTransform="matrix(3.7794 0 0 3.7794 .00097232 -1058.5)" gradientUnits="userSpaceOnUse">
   <stop stop-color="#000000" stop-opacity=".1" offset="0"/>
   <stop stop-color="#000000" stop-opacity=".05" offset=".5"/>
   <stop stop-color="#fff" stop-opacity=".15" offset="1"/>
  </linearGradient>
  <linearGradient id="linearGradient897" x1="6.8792" x2="6.8792" y1="285.36" y2="283.77" gradientTransform="matrix(3.7794 0 0 3.7794 .001401 -1058.5)" gradientUnits="userSpaceOnUse">
   <stop offset="0"/>
   <stop stop-color="#000000" stop-opacity=".2" offset="1"/>
  </linearGradient>
  <linearGradient id="linearGradient907" x1="1.0583" x2="15.875" y1="289.59" y2="289.59" gradientTransform="matrix(3.7794 0 0 3.7794 .00022026 -1058.5)" gradientUnits="userSpaceOnUse">
   <stop stop-color="#000000" stop-opacity=".1" offset="0"/>
   <stop stop-color="#000000" stop-opacity="0" offset=".10783"/>
   <stop stop-color="#000000" stop-opacity="0" offset=".89398"/>
   <stop stop-color="#000000" stop-opacity=".1" offset="1"/>
  </linearGradient>
  <linearGradient id="linearGradient1083" x1="8.4667" x2="8.4667" y1="4.4979" y2="9.9847" gradientTransform="matrix(3.7794 0 0 3.7794 .0013527 .00055683)" gradientUnits="userSpaceOnUse">
   <stop stop-color="#000000" offset="0"/>
   <stop stop-color="#000000" stop-opacity="0" offset="1"/>
  </linearGradient>
 </defs>
 <image x="1.5" y="7.1252" width="61" height="51" image-rendering="optimizeQuality" preserveAspectRatio="none" xlink:href="data:image/png;base64,iVBORw0KGgoAAAANSUhEUgAAAD0AAAAzCAYAAAAkaACZAAAACXBIWXMAAA7KAAAOygExokLlAAAA GXRFWHRTb2Z0d2FyZQB3d3cuaW5rc2NhcGUub3Jnm+48GgAAAfFJREFUaIHtm9tuwjAMQE9LuT5M +/+/RNuA0dseHNOQFdayAkHOkUIBUeJTO0Egk/GbzI1baINjlGTB/QyYeWOMfAvU3miJVD7zjjkw B9bAyt3PGSbeAg1QAgc3Sjr5qCjcMUMk39zYuMdDS12zWgF74NONg3suqqwXdCW9RoTfgSXDs6xo tpfAArloH8AOyXrjvW5qLsXZO5dmeoaU9AYJWi/GWHK6/WDuxgIRP3Lfcg/jbXsGcJ5pDXJshsOJ M0Q0d++/Ar7o1nlz8ez+4Me8xn++QZZWSXDB/TWtu/WtwuHkBd3muHIBVC6YMNvhp8il97w2X0iD yO6QZbZ387dFcNIUwn4gM7qMq+y18v5r/rF7TIVc8NzN3wBNce2sidDqyZlmPQ8Vb+mqt0aW15EH SftMWUlD5yqQzVk36Cp/YBDPQCtMP1Fy9MYAKg/YkT4jSVshSVshSVtBpaP5gv8ITGfaFEnaCkna CknaCknaCknaCknaCknaCknaCknaCknaCr50VL1eE3Pm5v/uPaQn5BVRp1ODj/aB1EjrUUl/98+r 4rdvnto2tedEG1F2SA8Y/K+fLAZU+BvxOiCeFHSZ3gNbd8LY3tDY0JIuEeEt4lcD7VRdwLERdiXv 8ZbulP3esXGx/7xP6h7dg8+i958GP9BZjSVLAVZAAAAAAElFTkSuQmCC "/>
 <path d="m8.3517 9.0002h10.183c2.8367 0 2.9586 0.10771 5.8268 2.3796 2.9532 2.2314 3.5812 2.2941 7.0415 2.2941l24.23-0.19804c2.4107-0.0189 4.3505 1.9412 4.3516 4.3524l0.01437 32.817c1e-3 2.4114-1.9408 4.3528-4.3517 4.3528h-47.281c-2.4108 0-4.3509-1.9413-4.3516-4.3528l-0.014205-37.293c-9.184e-4 -2.4114 1.9408-4.3528 4.3516-4.3528z" fill="#ff8180" stroke-width="3.779"/>
 <path d="m8.3542 9.0002c-2.4113 0-4.3533 1.9422-4.3533 4.3533v7.9118c0-2.3631 1.9024-4.2655 4.2654-4.2655h47.467c2.3631 0 4.2655 1.9024 4.2655 4.2655v-3.4374c0-2.4113-1.9423-4.3703-4.3533-4.3514l-24.235 0.19726c-3.4613 0-4.0887-0.06351-7.0428-2.2948-2.8689-2.2718-2.9906-2.3788-5.8279-2.3788h-10.186z" fill="url(#linearGradient897)" opacity=".45" stroke-width=".99997"/>
 <rect x="4" y="16.97" width="56" height="37.999" rx="4.3528" ry="4.2662" fill="url(#linearGradient907)" stroke-width="3.7794"/>
 <path d="m8.3547 17c-2.4113 0-4.3532 1.9019-4.3532 4.2655v0.88862c0-2.3013 1.942-4.154 4.3532-4.154h47.292c2.4113 0 4.3532 1.8528 4.3532 4.154v-0.88862c0-2.3635-1.942-4.2655-4.3532-4.2655z" fill="#ffffff" opacity=".1" stroke-width=".99997"/>
 <rect x="4" y="47.999" width="56" height="1.9999" fill="url(#linearGradient860)" stroke-width="3.7794"/>
 <path d="m4.028 51c0.1418 2.2362 2.0076 3.9998 4.3259 3.9998h47.292c2.3183 0 4.1842-1.7636 4.3259-3.9998h-55.943z" fill="url(#linearGradient868)" stroke-width=".99997"/>
 <rect x="4" y="16.97" width="56" height="37.999" rx="4.3528" ry="4.2662" fill="url(#linearGradient1083)" opacity=".05" stroke-width="3.7794"/>
</svg>

<svg xmlns="http://www.w3.org/2000/svg" xmlns:xlink="http://www.w3.org/1999/xlink" width="64" height="64"><defs><linearGradient id="c" x1="8.467" x2="8.467" y1="293.3" y2="292.77" gradientTransform="translate(0 -1058.5)scale(3.7794)" gradientUnits="userSpaceOnUse"><stop offset="0" stop-opacity=".1"/><stop offset="1" stop-color="#fff" stop-opacity=".15"/></linearGradient><linearGradient id="d" x1="8.467" x2="8.467" y1="294.62" y2="293.56" gradientTransform="translate(.001 -1058.5)scale(3.7794)" gradientUnits="userSpaceOnUse"><stop offset="0" stop-opacity=".1"/><stop offset=".5" stop-opacity=".05"/><stop offset="1" stop-color="#fff" stop-opacity=".15"/></linearGradient><linearGradient id="a" x1="6.879" x2="6.879" y1="285.36" y2="283.77" gradientTransform="translate(.001 -1058.5)scale(3.7794)" gradientUnits="userSpaceOnUse"><stop offset="0"/><stop offset="1" stop-opacity=".2"/></linearGradient><linearGradient id="b" x1="1.058" x2="15.875" y1="289.59" y2="289.59" gradientTransform="translate(0 -1058.5)scale(3.7794)" gradientUnits="userSpaceOnUse"><stop offset="0" stop-opacity=".1"/><stop offset=".108" stop-opacity="0"/><stop offset=".894" stop-opacity="0"/><stop offset="1" stop-opacity=".1"/></linearGradient><linearGradient id="e" x1="8.467" x2="8.467" y1="4.498" y2="9.985" gradientTransform="translate(.001)scale(3.7794)" gradientUnits="userSpaceOnUse"><stop offset="0"/><stop offset="1" stop-opacity="0"/></linearGradient></defs><image xlink:href="data:image/png;base64,iVBORw0KGgoAAAANSUhEUgAAAD0AAAAzCAYAAAAkaACZAAAACXBIWXMAAA7KAAAOygExokLlAAAA GXRFWHRTb2Z0d2FyZQB3d3cuaW5rc2NhcGUub3Jnm+48GgAAAfFJREFUaIHtm9tuwjAMQE9LuT5M +/+/RNuA0dseHNOQFdayAkHOkUIBUeJTO0Egk/GbzI1baINjlGTB/QyYeWOMfAvU3miJVD7zjjkw B9bAyt3PGSbeAg1QAgc3Sjr5qCjcMUMk39zYuMdDS12zWgF74NONg3suqqwXdCW9RoTfgSXDs6xo tpfAArloH8AOyXrjvW5qLsXZO5dmeoaU9AYJWi/GWHK6/WDuxgIRP3Lfcg/jbXsGcJ5pDXJshsOJ M0Q0d++/Ar7o1nlz8ez+4Me8xn++QZZWSXDB/TWtu/WtwuHkBd3muHIBVC6YMNvhp8il97w2X0iD yO6QZbZ387dFcNIUwn4gM7qMq+y18v5r/rF7TIVc8NzN3wBNce2sidDqyZlmPQ8Vb+mqt0aW15EH SftMWUlD5yqQzVk36Cp/YBDPQCtMP1Fy9MYAKg/YkT4jSVshSVshSVtBpaP5gv8ITGfaFEnaCkna CknaCknaCknaCknaCknaCknaCknaCknaCr50VL1eE3Pm5v/uPaQn5BVRp1ODj/aB1EjrUUl/98+r 4rdvnto2tedEG1F2SA8Y/K+fLAZU+BvxOiCeFHSZ3gNbd8LY3tDY0JIuEeEt4lcD7VRdwLERdiXv 8ZbulP3esXGx/7xP6h7dg8+i958GP9BZjSVLAVZAAAAAAElFTkSuQmCC" width="61" height="51" x="1.5" y="7.125" image-rendering="optimizeQuality" preserveAspectRatio="none"/><path fill="#ff8180" d="M8.352 9h10.183c2.836 0 2.958.108 5.827 2.38 2.953 2.231 3.58 2.294 7.041 2.294l24.23-.198c2.41-.019 4.35 1.941 4.352 4.352l.014 32.817a4.34 4.34 0 0 1-4.352 4.353H8.367a4.343 4.343 0 0 1-4.352-4.353L4 13.352A4.34 4.34 0 0 1 8.352 9z"/><path fill="url(#a)" d="M8.354 9a4.344 4.344 0 0 0-4.353 4.353v7.912A4.256 4.256 0 0 1 8.266 17h47.467A4.256 4.256 0 0 1 60 21.265v-3.437c0-2.411-1.942-4.37-4.353-4.351l-24.235.197c-3.462 0-4.09-.064-7.043-2.295C21.498 9.107 21.378 9 18.54 9z" opacity=".45"/><rect width="56" height="37.999" x="4" y="16.97" fill="url(#b)" rx="4.353" ry="4.266"/><path fill="#fff" d="M8.355 17C5.943 17 4 18.902 4 21.266v.888C4.001 19.853 5.943 18 8.356 18h47.292C58.058 18 60 19.853 60 22.154v-.889C60 18.903 58.058 17 55.647 17z" opacity=".1"/><path fill="url(#c)" d="M4 47.999h56v2H4z"/><path fill="url(#d)" d="M4.028 51c.142 2.236 2.008 4 4.326 4h47.292c2.318 0 4.184-1.764 4.326-4z"/><rect width="56" height="37.999" x="4" y="16.97" fill="url(#e)" opacity=".05" rx="4.353" ry="4.266"/></svg>
